X: 127
T:Bourrée patinée
M:3/4
L:1/8
Q:1/4=180
R:Bourrée à 3 temps
O:France
A:Morvan
K:C
ce|g2g2c'2|g4ef|ga gf ed|c2 z2 c2|
|:A2 B2 c2|d4e2|f2 gf ed|e2c2c2|A2B2c2|
d4 de|f2 gf ed|1c4c2:|2c4 ce||
W:
W: From "Falaleiro" http://home.t-online.de/home/pheld/homepage.htm

